X: 856
T: Ale Is Dear, The
R: reel
M: 4/4
K: Bminor
e|f2ef B2fe|faef cAec|f2ef B2fe|faec B3:|
A|~B3c d2cB|~A3B ABcA|~B3c d2cB|faec B3A|
~B3c d2cB|~A3B ABcA|d2fd c2ec|faec B3||

